X: 1822
T: Söylendi Bugün Dildeki Âlemde
C: Mediha Şen Sancakoğlu
O: Turkey
F: http://compmusic.upf.edu/node/140
N: kurdilihicazkar--sarki--turkaksagi--soylendi_bugun--mediha_sen_sancakoglu
N: makam= kurdilihicazkar
N: form= sarki
N: usul= turkaksagi = 5/8
M: 5/8
L: 1/16
K: C _B _e _A 
Q: 1/4=108
%%MIDI tuningsystem comma53
g4 e2d2 c2 | d4B2 A2G2  | g4 a2g2 f2 | ba gag6  | \
w:  ARANAĞME  |   |   |   | 
g4 gfed c2 | 
w:   | 
f4fe dcB2  | e3d c2B2 d2 | BA AGG6  | g4 e2d2 c2 | \
w:   |   |   |  ARANAĞME  | 
d4B2 A2G2  | 
w:   | 
g4 a2g2 f2 | ba gag6  | g4 gfed c2 | f4fe dcB2  | 
w:   |   |   |   | 
e3d c2B2 d2 | BA AGG6  | g4 agfe f2 | g2 g2g4z2  | \
w:   |   |  Söy len  |  di  bu gün   | 
fg/f/ed c4 B2 | 
w:  dil  | 
(3cBA AGG6  | c4 _1/4ede2 g2 | f2 g=agf _1/4e^3/4de2  | \
w:  de *  *  ki  *  â  |  lem  |   | 
f2g2 bba2 ag | 
w:  de  o  göz  | 
g2 fedc BAG2  | g4 agfe f2 | g2 g2g4z2  | \
w:  ler   SAZ  |  Söy len  |  di  bu gün   | 
fg/f/ed c4 B2 | 
w:  dil  | 
(3cBA AGG6  | c4 _1/4ede2 g2 | f2 g=agf _1/4e^3/4de2  | \
w:  de *  *  ki  *  â  |  lem  |   | 
f2g2 bba2 ag | 
w:  de  o  göz  | 
g4f_2/4e/d/ .e.f.g2  | f2fg b2a2 gf | \
w:  ler   SAZ  |  Yan *  *  dım   | 
gf ede6  | d2e/d/e g2f2 ed | 
w:  a *  *  *  duy  |  dum   | 
fe edd6  | c4 g6 | f2 edc2 BAG2  | .c2.c2 edcB AG | 
w:  be *  ni  *  in  |  cit  |   |  ti  o  söz  | 
G4g_2/4e/d/ ._e.f.g2  | f2fg b2a2 gf | \
w:  ler   SAZ  |  Yan *  *  dım   | 
gf ede6  | d2e/d/e g2f2 ed | 
w:  a *  *  *  duy  |  dum   | 
fe edd6  | c4 g6 | f2 edc2 BAG2  | .c2.c2 edcB AG | 
w:  be *  ni  *  in  |  cit  |   |  ti  o  söz  | 
G4f2 g_2/4ab2  | b4 bb_2/4ag f2 | g2 _2/4a2b6  | \
w:  ler   SAZ  |  Bir  vus  |  la tı  bek  | 
b2_3/4c'2 c'2b2 b_2/4a | b_2/4a agg6  | 
w:  ler   |  gi *  bi  *  her  | 
g2=ag f2_2/4e2 d2 | (3_2/4ede (3fefg2 agf2  | \
w:  kes   |   | 
c'c'3 c'd'/c'/ba ag | 
w:  se ni  öz  | 
g4f_2/4e/d/ .e.f.g2  | f2fg b2a2 gf | \
w:  ler   SAZ  |  Yan *  *  dım   | 
gf ede6  | d2e/d/e g2f2 ed | 
w:  a *  *  *  duy  |  dum   | 
fe edd6  | c4 g6 | f2 edc2 BAG2  | .c2.c2 edcB AG | 
w:  be *  ni  *  in  |  cit  |   |  ti  o  söz  | 
G4g_2/4e/d/ ._e.f.g2  | f2fg b2a2 gf | \
w:  ler   SAZ  |  Yan *  *  dım   | 
gf ede6  | d2e/d/e g2f2 ed | 
w:  a *  *  *  duy  |  dum   | 
fe edd6  | c4 g6 | f2 edc2 BAG2  | .c2.c2 edcB AG | 
w:  be *  ni  *  in  |  cit  |   |  ti  o  söz  | 
G4|
w:  ler    | 


